img/05_144.svg

<svg width="144" height="144" viewBox="0 0 144 144" fill="none" xmlns="http://www.w3.org/2000/svg">
<path d="M139.171 92.0438L125.148 89.1988L110.829 64.8688C110.422 64.1788 109.671 63.7498 108.869 63.7498H102.22V56.9318C102.22 55.6778 101.199 54.6588 99.9457 54.6588H92.8917C91.6377 54.6588 90.6187 55.6788 90.6187 56.9318V63.7498H83.5527C82.2987 63.7498 81.2787 64.7698 81.2787 66.0228V96.8038H72.9177V56.9278C72.9177 55.6738 71.8977 54.6548 70.6447 54.6548H18.1957C16.9417 54.6548 15.9227 55.6748 15.9227 56.9278V96.8048H5.2837C4.0327 96.8048 3.0137 97.8238 3.0127 99.0778V132.682C3.0127 133.936 4.0337 134.955 5.2857 134.955H17.2937C20.5167 140.229 26.3447 143.5 32.5377 143.5C35.7587 143.5 38.9287 142.619 41.7037 140.953C44.1647 139.477 46.2527 137.405 47.7497 134.955H96.2537C99.4777 140.229 105.305 143.5 111.498 143.5C114.719 143.5 117.889 142.619 120.665 140.953C123.126 139.476 125.214 137.405 126.711 134.955H138.711C139.965 134.955 140.985 133.935 140.985 132.682V94.2718C140.986 93.1968 140.224 92.2608 139.171 92.0438ZM112.64 76.9148L119.719 88.9528H95.1637V76.9148H112.64ZM95.1637 59.2008H97.6707V63.7458H95.1637V59.2008ZM46.6957 59.2008H68.3677V80.8808H46.6957V59.2008ZM46.6957 85.4278H68.3677V96.8048H46.6957V85.4278ZM20.4697 59.2008H42.1497V80.8808H20.4697V59.2008ZM20.4697 85.4278H42.1497V96.8048H20.4697V85.4278ZM7.5617 130.408V120.855H15.2757C14.4037 123.989 14.4087 127.277 15.2917 130.408H7.5617ZM32.6907 138.953L32.5197 138.949C25.1597 138.949 19.1697 132.961 19.1697 125.6C19.1697 118.239 25.1577 112.251 32.5197 112.251C39.8797 112.251 45.8687 118.239 45.8687 125.601C45.8637 132.899 39.9687 138.854 32.6907 138.953ZM32.5027 107.702C29.3077 107.702 26.1597 108.57 23.3987 110.212C20.8877 111.705 18.7657 113.812 17.2527 116.309H7.5617V101.352H81.2767V116.309H47.7867C44.5687 110.996 38.7267 107.702 32.5027 107.702ZM49.7557 130.408C50.6387 127.277 50.6437 123.989 49.7717 120.855H94.2357C93.3627 123.989 93.3677 127.277 94.2507 130.408H49.7557ZM111.481 138.954C104.121 138.954 98.1317 132.967 98.1317 125.606C98.1307 118.246 104.119 112.256 111.48 112.255C118.84 112.255 124.829 118.242 124.831 125.601C124.825 132.955 118.838 138.945 111.481 138.954ZM136.442 130.413H128.713C129.596 127.283 129.601 123.995 128.728 120.861H136.443V130.413H136.442ZM136.444 99.0918H129.105C127.851 99.0918 126.831 100.113 126.831 101.366V109.161C126.831 110.415 127.852 111.434 129.105 111.434H136.444V116.308H126.749C123.531 110.996 117.689 107.703 111.466 107.703C108.271 107.703 105.122 108.57 102.362 110.213C99.8507 111.705 97.7287 113.812 96.2157 116.309H85.8237V68.2928H107.567L109.963 72.3618H92.8907C91.6367 72.3618 90.6177 73.3828 90.6177 74.6358V91.2258C90.6177 92.4798 91.6377 93.4988 92.8907 93.4988L123.451 93.4938L136.445 96.1288V99.0918H136.444ZM136.444 103.64L136.442 106.888H131.379V103.64H136.444Z" fill="#11305D"/>
<path d="M32.5216 117.513C28.0616 117.513 24.4326 121.142 24.4326 125.602C24.4326 130.063 28.0616 133.692 32.5216 133.692C36.9826 133.692 40.6116 130.063 40.6116 125.602C40.6066 121.146 36.9786 117.517 32.5216 117.513ZM32.5216 129.143C30.5686 129.143 28.9796 127.554 28.9796 125.601C28.9796 123.648 30.5686 122.059 32.5216 122.059C34.4746 122.059 36.0636 123.649 36.0636 125.602C36.0616 127.552 34.4736 129.141 32.5216 129.143Z" fill="#11305D"/>
<path d="M111.481 117.513C107.022 117.513 103.392 121.141 103.391 125.6C103.389 130.06 107.017 133.69 111.478 133.692C115.939 133.692 119.568 130.064 119.569 125.602C119.564 121.147 115.938 117.519 111.481 117.513ZM111.481 129.143C109.529 129.143 107.94 127.555 107.938 125.604C107.937 123.651 109.526 122.061 111.478 122.059L111.48 121.809V122.059C113.432 122.059 115.021 123.647 115.022 125.602C115.02 127.55 113.432 129.139 111.481 129.143Z" fill="#11305D"/>
<path d="M97.5212 96.8052H92.8892C91.6352 96.8052 90.6162 97.8252 90.6162 99.0782C90.6162 100.331 91.6362 101.351 92.8892 101.351H97.5212C98.7752 101.351 99.7952 100.331 99.7952 99.0782C99.7952 97.8252 98.7752 96.8052 97.5212 96.8052Z" fill="#11305D"/>
<path d="M18.2085 50.315H51.9525C53.2065 50.315 54.2235 49.297 54.2235 48.043C54.2235 46.787 53.2055 45.77 51.9525 45.77H18.2085C16.9525 45.77 15.9355 46.788 15.9355 48.043C15.9355 49.298 16.9525 50.315 18.2085 50.315Z" fill="#11305D"/>
<path d="M18.2085 41.649H51.9525C53.2065 41.649 54.2235 40.631 54.2235 39.377C54.2235 38.121 53.2055 37.104 51.9525 37.104H18.2085C16.9525 37.104 15.9355 38.122 15.9355 39.377C15.9355 40.632 16.9525 41.649 18.2085 41.649Z" fill="#11305D"/>
<path d="M18.2085 32.983H51.9525C53.2065 32.983 54.2235 31.965 54.2235 30.711C54.2235 29.455 53.2055 28.438 51.9525 28.438H18.2085C16.9525 28.438 15.9355 29.456 15.9355 30.711C15.9355 31.966 16.9525 32.983 18.2085 32.983Z" fill="#11305D"/>
</svg>

<?xml version="1.0" encoding="utf-8"?>
<!-- Generator: Adobe Illustrator 15.0.2, SVG Export Plug-In . SVG Version: 6.00 Build 0)  -->
<!DOCTYPE svg PUBLIC "-//W3C//DTD SVG 1.1//EN" "http://www.w3.org/Graphics/SVG/1.1/DTD/svg11.dtd">
<svg version="1.1" id="Layer_1" xmlns="http://www.w3.org/2000/svg" xmlns:xlink="http://www.w3.org/1999/xlink" x="0px" y="0px"
	 width="144px" height="144px" viewBox="0 0 144 144" enable-background="new 0 0 144 144" xml:space="preserve">
<g>
	<path d="M139.171,92.044l-14.023-2.845l-14.319-24.33c-0.407-0.69-1.158-1.119-1.96-1.119h-6.649v-6.818
		c0-1.254-1.021-2.273-2.274-2.273h-7.054c-1.254,0-2.273,1.02-2.273,2.273v6.818h-7.066c-1.254,0-2.274,1.02-2.274,2.273v30.781
		h-8.361V56.928c0-1.254-1.02-2.273-2.273-2.273H18.196c-1.254,0-2.273,1.02-2.273,2.273v39.877H5.284
		c-1.251,0-2.27,1.019-2.271,2.273v33.604c0,1.254,1.021,2.273,2.273,2.273h12.008c3.223,5.274,9.051,8.545,15.244,8.545
		c3.221,0,6.391-0.881,9.166-2.547c2.461-1.476,4.549-3.548,6.046-5.998h48.504c3.224,5.274,9.051,8.545,15.244,8.545
		c3.221,0,6.391-0.881,9.167-2.547c2.461-1.477,4.549-3.548,6.046-5.998h12c1.254,0,2.274-1.02,2.274-2.273v-38.41
		C140.986,93.197,140.224,92.261,139.171,92.044z M112.64,76.915l7.079,12.038H95.164V76.915H112.64z M95.164,59.201h2.507v4.545
		h-2.507V59.201z M46.696,59.201h21.672v21.68H46.696V59.201z M46.696,85.428h21.672v11.377H46.696V85.428z M20.47,59.201h21.68
		v21.68H20.47V59.201z M20.47,85.428h21.68v11.377H20.47V85.428z M7.562,130.408v-9.553h7.714c-0.872,3.134-0.867,6.422,0.016,9.553
		H7.562z M32.691,138.953l-0.171-0.004c-7.36,0-13.35-5.988-13.35-13.349s5.988-13.349,13.35-13.349
		c7.36,0,13.349,5.988,13.349,13.35C45.864,132.899,39.969,138.854,32.691,138.953z M32.503,107.702
		c-3.195,0-6.343,0.868-9.104,2.51c-2.511,1.493-4.633,3.6-6.146,6.097H7.562v-14.957h73.715v14.957h-33.49
		C44.569,110.996,38.727,107.702,32.503,107.702z M49.756,130.408c0.883-3.131,0.888-6.419,0.016-9.553h44.464
		c-0.873,3.134-0.868,6.422,0.015,9.553H49.756z M111.481,138.954c-7.36,0-13.349-5.987-13.349-13.348
		c-0.001-7.36,5.987-13.35,13.348-13.351c7.36,0,13.349,5.987,13.351,13.346C124.825,132.955,118.838,138.945,111.481,138.954z
		 M136.442,130.413h-7.729c0.883-3.13,0.888-6.418,0.015-9.552h7.715V130.413z M136.444,99.092h-7.339
		c-1.254,0-2.274,1.021-2.274,2.274v7.795c0,1.254,1.021,2.273,2.274,2.273h7.339v4.874h-9.695
		c-3.218-5.312-9.06-8.605-15.283-8.605c-3.195,0-6.344,0.867-9.104,2.51c-2.511,1.492-4.633,3.599-6.146,6.096H85.824V68.293
		h21.743l2.396,4.069H92.891c-1.254,0-2.273,1.021-2.273,2.274v16.59c0,1.254,1.02,2.273,2.273,2.273l30.56-0.005l12.994,2.635
		V99.092z M136.444,103.64l-0.002,3.248h-5.063v-3.248H136.444z"/>
	<path d="M32.522,117.513c-4.46,0-8.089,3.629-8.089,8.089c0,4.461,3.629,8.09,8.089,8.09c4.461,0,8.09-3.629,8.09-8.09
		C40.607,121.146,36.979,117.517,32.522,117.513z M32.522,129.143c-1.953,0-3.542-1.589-3.542-3.542s1.589-3.542,3.542-3.542
		s3.542,1.59,3.542,3.543C36.062,127.552,34.474,129.141,32.522,129.143z"/>
	<path d="M111.481,117.513c-4.459,0-8.089,3.628-8.09,8.087c-0.002,4.46,3.626,8.09,8.087,8.092c4.461,0,8.09-3.628,8.091-8.09
		C119.564,121.147,115.938,117.519,111.481,117.513z M111.481,129.143c-1.952,0-3.541-1.588-3.543-3.539
		c-0.001-1.953,1.588-3.543,3.54-3.545l0.002-0.25v0.25c1.952,0,3.541,1.588,3.542,3.543
		C115.02,127.55,113.432,129.139,111.481,129.143z"/>
	<path d="M97.522,96.805h-4.632c-1.254,0-2.273,1.02-2.273,2.273s1.02,2.273,2.273,2.273h4.632c1.254,0,2.274-1.02,2.274-2.273
		S98.776,96.805,97.522,96.805z"/>
	<path d="M18.209,50.315h33.744c1.254,0,2.271-1.018,2.271-2.272c0-1.256-1.018-2.273-2.271-2.273H18.209
		c-1.256,0-2.273,1.018-2.273,2.273C15.936,49.298,16.953,50.315,18.209,50.315z"/>
	<path d="M18.209,41.649h33.744c1.254,0,2.271-1.018,2.271-2.272c0-1.256-1.018-2.273-2.271-2.273H18.209
		c-1.256,0-2.273,1.018-2.273,2.273C15.936,40.632,16.953,41.649,18.209,41.649z"/>
	<path d="M18.209,32.983h33.744c1.254,0,2.271-1.018,2.271-2.272c0-1.256-1.018-2.273-2.271-2.273H18.209
		c-1.256,0-2.273,1.018-2.273,2.273C15.936,31.966,16.953,32.983,18.209,32.983z"/>
</g>
</svg>
